src/public/svg/11d.svg

<svg xmlns="http://www.w3.org/2000/svg" style="isolation:isolate" width="512" height="512"><path d="M411.247 145.67c-5.296-72.883-68.404-130.613-145.209-130.613-60.931 0-114.627 36.029-136.05 90.432-1.489-.054-2.99-.079-4.499-.079C56.295 105.407 0 161.701 0 230.899c0 69.198 56.295 125.492 125.492 125.492h18.241l-2.497 6.383a10.048 10.048 0 001.059 9.319 10.052 10.052 0 008.294 4.378h100.392v110.432a10.04 10.04 0 0010.038 10.04c3.814 0 7.382-2.176 9.068-5.735l64.183-135.321c.822.217 1.622.507 2.515.507 24.95 0 74.814-.127 75.304-.144C468.107 353.367 512 307.127 512 250.981c.003-56.567-44.779-102.867-100.753-105.311zM271.058 442.307v-75.879c.003-5.543-4.487-10.04-10.037-10.04h-95.727l65.608-167.658v107.667c0 5.544 4.49 10.04 10.04 10.04h94.559l-64.443 135.87zm140.485-106.125s-41.804.107-67.987.127l16.887-35.604a10.018 10.018 0 00-.589-9.671 10.023 10.023 0 00-8.48-4.671H250.981V135.524c0-4.829-3.432-8.97-8.176-9.863-4.746-.901-9.451 1.712-11.216 6.205l-79.998 204.44-24.472-.009-1.627.009c-58.127 0-105.412-47.288-105.412-105.413 0-58.124 47.285-105.412 105.412-105.412 3.5 0 6.971.172 10.392.504 4.617.481 9.04-2.374 10.51-6.842 16.597-50.247 64.687-84.012 119.647-84.012 69.198 0 125.492 54.045 125.492 120.472 0 5.442 4.333 9.894 9.776 10.034 1.236.026 2.449.02 3.685.014l1.599-.011c47.049 0 85.333 38.279 85.333 85.333 0 45.455-35.522 82.886-80.383 85.209z" fill="white"/></svg>

<?xml version="1.0" standalone="no"?><!-- Generator: Gravit.io --><svg xmlns="http://www.w3.org/2000/svg" xmlns:xlink="http://www.w3.org/1999/xlink" style="isolation:isolate" viewBox="0 0 512 512" width="512" height="512"><g id="null"><g id="null"><path d=" M 411.247 145.67 C 405.951 72.787 342.843 15.057 266.038 15.057 C 205.107 15.057 151.411 51.086 129.988 105.489 C 128.499 105.435 126.998 105.41 125.489 105.41 C 56.295 105.407 0 161.701 0 230.899 C 0 300.097 56.295 356.391 125.492 356.391 L 143.733 356.391 L 141.236 362.774 C 140.031 365.862 140.422 369.348 142.295 372.093 C 144.167 374.832 147.275 376.471 150.589 376.471 L 250.981 376.471 L 250.981 486.903 C 250.981 491.599 254.236 495.668 258.814 496.698 C 259.549 496.864 260.295 496.943 261.019 496.943 C 264.833 496.943 268.401 494.767 270.087 491.208 L 334.27 355.887 C 335.092 356.104 335.892 356.394 336.785 356.394 C 361.735 356.394 411.599 356.267 412.089 356.25 C 468.107 353.367 512 307.127 512 250.981 C 512.003 194.414 467.221 148.114 411.247 145.67 Z  M 271.058 442.307 L 271.058 366.428 C 271.061 360.885 266.571 356.388 261.021 356.388 L 165.294 356.388 L 230.902 188.73 L 230.902 296.397 C 230.902 301.941 235.392 306.437 240.942 306.437 L 335.501 306.437 L 271.058 442.307 Z  M 411.543 336.182 C 411.543 336.182 369.739 336.289 343.556 336.309 L 360.443 300.705 C 361.924 297.591 361.698 293.945 359.854 291.034 C 358.021 288.125 354.815 286.363 351.374 286.363 L 250.981 286.363 L 250.981 135.524 C 250.981 130.695 247.549 126.554 242.805 125.661 C 238.059 124.76 233.354 127.373 231.589 131.866 L 151.591 336.306 L 127.119 336.297 L 125.492 336.306 C 67.365 336.306 20.08 289.018 20.08 230.893 C 20.08 172.769 67.365 125.481 125.492 125.481 C 128.992 125.481 132.463 125.653 135.884 125.985 C 140.501 126.466 144.924 123.611 146.394 119.143 C 162.991 68.896 211.081 35.131 266.041 35.131 C 335.239 35.131 391.533 89.176 391.533 155.603 C 391.533 161.045 395.866 165.497 401.309 165.637 C 402.545 165.663 403.758 165.657 404.994 165.651 L 406.593 165.64 C 453.642 165.64 491.926 203.919 491.926 250.973 C 491.926 296.428 456.404 333.859 411.543 336.182 Z " fill="rgb(0,0,0)"/></g></g></svg>
